usr/share/icons/biglinux-icons-material/22/actions/filename-group-length.svg

<svg version="1.1" viewBox="0 0 22 22" xmlns="http://www.w3.org/2000/svg">
 <defs>
  <style id="current-color-scheme" type="text/css">.ColorScheme-Text {
        color:#dedede;
      }</style>
 </defs>
 <path d="m15.5 13a3.5 3.5 0 0 0-3.5 3.5 3.5 3.5 0 0 0 3.5 3.5 3.5 3.5 0 0 0 3.5-3.5 3.5 3.5 0 0 0-3.5-3.5zm-1.5 2h1v2h2v1h-3v-1z" class="ColorScheme-Text" fill="currentColor"/>
 <path d="m6 2c-1.662 0-3 1.338-3 3v10c0 1.3601 0.90218 2.491 2.1387 2.8613 0.37037 1.2365 1.5012 2.1387 2.8613 2.1387h3v-1h-3c-1.108 0-2-0.892-2-2v-10c0-1.108 0.892-2 2-2h8c1.108 0 2 0.892 2 2v5h1v-5c0-1.3601-0.90218-2.491-2.1387-2.8613-0.37037-1.2365-1.5012-2.1387-2.8613-2.1387zm0 1h8c0.74107 0 1.379 0.4042 1.7246 1h-7.7246c-1.662 0-3 1.338-3 3v9.7246c-0.5958-0.34556-1-0.98355-1-1.7246v-10c0-1.108 0.892-2 2-2z" class="ColorScheme-Text" fill="currentColor"/>
</svg>

<svg xmlns="http://www.w3.org/2000/svg" viewBox="0 0 22 22"><defs><style id="current-color-scheme" type="text/css">.ColorScheme-Text{color:#dedede}</style></defs><path fill="currentColor" d="M15.5 13a3.5 3.5 0 0 0-3.5 3.5 3.5 3.5 0 0 0 3.5 3.5 3.5 3.5 0 0 0 3.5-3.5 3.5 3.5 0 0 0-3.5-3.5zM14 15h1v2h2v1h-3v-1z" class="ColorScheme-Text"/><path fill="currentColor" d="M6 2C4.338 2 3 3.338 3 5v10c0 1.36.902 2.491 2.139 2.861A2.984 2.984 0 0 0 8 20h3v-1H8c-1.108 0-2-.892-2-2V7c0-1.108.892-2 2-2h8c1.108 0 2 .892 2 2v5h1V7c0-1.36-.902-2.491-2.139-2.861A2.984 2.984 0 0 0 14 2zm0 1h8a1.99 1.99 0 0 1 1.725 1H8C6.338 4 5 5.338 5 7v9.725A1.99 1.99 0 0 1 4 15V5c0-1.108.892-2 2-2z" class="ColorScheme-Text"/></svg>
